X: 26
T:Fair Jenny
R:Jig
M:6/8
L:1/8
N:Peter Barnes, from the playing of Rodney Miller, Airplang
K:D
|:f3fgf|ecAecA|Bcde2A|Bcdefg|
f3fgf|ecAecA|Bcde2c|[1ABcd2e:|]
[2ABcd3|]|:B3B3A|G2(BB2)B|A3d3|
c3AB=c|B3B2A|G2(BB2)B|A3ABc|d6:|

